svg/link_circle_outline.svg

<svg xmlns="http://www.w3.org/2000/svg" viewBox="0 0 24 24"><path d="M10 16h1v-2h-1c-.33 0-2-.1-2-2 0-1.83 1.54-2 2-2h1V8h-1c-1.61 0-4 1.07-4 4 0 2.94 2.39 4 4 4m3 0h1c1.61 0 4-1.06 4-4 0-2.93-2.39-4-4-4h-1v2h1c.33 0 2 .1 2 2 0 1.83-1.54 2-2 2h-1zm-4-3h6v-2H9zM8.17 2.76A10.1 10.1 0 0 1 12 2c1.31 0 2.61.26 3.83.76 1.21.5 2.31 1.24 3.24 2.17s1.67 2.03 2.17 3.24c.5 1.22.76 2.52.76 3.83 0 2.65-1.05 5.2-2.93 7.07A9.97 9.97 0 0 1 12 22a10.1 10.1 0 0 1-3.83-.76 10 10 0 0 1-3.24-2.17A9.97 9.97 0 0 1 2 12c0-2.65 1.05-5.2 2.93-7.07.93-.93 2.03-1.67 3.24-2.17m-1.83 14.9C7.84 19.16 9.88 20 12 20s4.16-.84 5.66-2.34S20 14.12 20 12s-.84-4.16-2.34-5.66A8 8 0 0 0 12 4c-2.12 0-4.16.84-5.66 2.34A8 8 0 0 0 4 12c0 2.12.84 4.16 2.34 5.66"/></svg>

<svg xmlns="http://www.w3.org/2000/svg" id="mdi-link-circle-outline" viewBox="0 0 24 24"><path d="M10 16H11V14H10C9.67 14 8 13.9 8 12C8 10.17 9.54 10 10 10H11V8H10C8.39 8 6 9.07 6 12C6 14.94 8.39 16 10 16M13 16H14C15.61 16 18 14.94 18 12C18 9.07 15.61 8 14 8H13V10H14C14.33 10 16 10.1 16 12C16 13.83 14.46 14 14 14H13V16M9 13H15V11H9V13M8.17 2.76C9.39 2.26 10.69 2 12 2C13.31 2 14.61 2.26 15.83 2.76C17.04 3.26 18.14 4 19.07 4.93C20 5.86 20.74 6.96 21.24 8.17C21.74 9.39 22 10.69 22 12C22 14.65 20.95 17.2 19.07 19.07C17.2 20.95 14.65 22 12 22C10.69 22 9.39 21.74 8.17 21.24C6.96 20.74 5.86 20 4.93 19.07C3.05 17.2 2 14.65 2 12C2 9.35 3.05 6.8 4.93 4.93C5.86 4 6.96 3.26 8.17 2.76M6.34 17.66C7.84 19.16 9.88 20 12 20C14.12 20 16.16 19.16 17.66 17.66C19.16 16.16 20 14.12 20 12C20 9.88 19.16 7.84 17.66 6.34C16.16 4.84 14.12 4 12 4C9.88 4 7.84 4.84 6.34 6.34C4.84 7.84 4 9.88 4 12C4 14.12 4.84 16.16 6.34 17.66Z" /></svg>
